!!!SOCIAL_FUNCTION:	war songs
!!!PDT:	1909
!!!OTL: No_157.krn
!!!REG: Great_Lakes
!!!LANG: Non-Tone
!!!LING_GROUP: Algonquin
**kern
*staff1
*clefF4
*k[f#c#]
*M3/4
4B\
=1
2d\
4d\
=2
2B\
16d\LK
8.B\J
=3||
*M4/4
8B\L
8E\J
16E\LK
[8.D\J
4D\]
16G\LK
8.E\J
=4
2D\
2BB/
=5||
*M3/4
2.BB/
=6||
*M4/4
2D\
4BB/
8D/L
8BB/J
=7
4.BB/
8BB/
2BB/
=8
2.BB/
4r
==
*-
